media/icon-file-type/svgs/figma/48.svg

<svg width="48" height="64" viewBox="0 0 48 64"><path fill-rule="evenodd" clip-rule="evenodd" d="M4 0.5H32.007C32.4775 0.500118 32.9432 0.595111 33.3762 0.779302C33.8092 0.963492 34.2006 1.2331 34.527 1.572L46.521 14.022C47.1494 14.6745 47.5003 15.5452 47.5 16.451V60C47.5 60.9283 47.1312 61.8185 46.4749 62.4749C45.8185 63.1312 44.9283 63.5 44 63.5H4C3.07174 63.5 2.1815 63.1312 1.52513 62.4749C0.868749 61.8185 0.5 60.9283 0.5 60V4C0.5 3.07174 0.868749 2.1815 1.52513 1.52513C2.1815 0.868749 3.07174 0.5 4 0.5V0.5Z" fill="white" stroke="#091E42" stroke-opacity="0.08"/><path d="M21.4933 39.52C22.877 39.52 24 38.397 24 37.0133V34.5067H21.4933C20.1097 34.5067 18.9867 35.6297 18.9867 37.0133C18.9867 38.397 20.1097 39.52 21.4933 39.52Z" fill="#8270DB"/><path d="M18.9867 32C18.9867 30.6163 20.1097 29.4933 21.4933 29.4933H24V34.5067H21.4933C20.1097 34.5067 18.9867 33.3837 18.9867 32Z" fill="#8270DB"/><path d="M18.9867 26.9867C18.9867 25.603 20.1097 24.48 21.4933 24.48H24V29.4933H21.4933C20.1097 29.4933 18.9867 28.3704 18.9867 26.9867Z" fill="#8270DB"/><path d="M24 24.48H26.5067C27.8903 24.48 29.0133 25.603 29.0133 26.9867C29.0133 28.3704 27.8903 29.4933 26.5067 29.4933H24V24.48Z" fill="#8270DB"/><path d="M29.0133 32C29.0133 33.3837 27.8903 34.5067 26.5067 34.5067C25.123 34.5067 24 33.3837 24 32C24 30.6163 25.123 29.4933 26.5067 29.4933C27.8903 29.4933 29.0133 30.6163 29.0133 32Z" fill="#8270DB"/></svg>

<svg width="48" height="64" viewBox="0 0 48 64"><path fill-rule="evenodd" clip-rule="evenodd" d="M4 .5h28.007a3.5 3.5 0 012.52 1.072l11.994 12.45a3.5 3.5 0 01.979 2.429V60a3.5 3.5 0 01-3.5 3.5H4A3.5 3.5 0 01.5 60V4A3.5 3.5 0 014 .5v0z" fill="#fff" stroke="#091E42" stroke-opacity=".08"/><path d="M21.493 39.52A2.508 2.508 0 0024 37.013v-2.506h-2.507a2.508 2.508 0 000 5.013zM18.987 32a2.508 2.508 0 012.506-2.507H24v5.014h-2.507A2.508 2.508 0 0118.987 32zm0-5.013a2.508 2.508 0 012.506-2.507H24v5.013h-2.507a2.508 2.508 0 01-2.506-2.506zM24 24.48h2.507a2.508 2.508 0 010 5.013H24V24.48z" fill="#5243AA"/><path d="M29.013 32A2.508 2.508 0 0124 32a2.508 2.508 0 015.013 0z" fill="#5243AA"/></svg>
